assets/icons/en.svg

<?xml version="1.0" encoding="UTF-8"?>
<svg xmlns="http://www.w3.org/2000/svg" xmlns:xlink="http://www.w3.org/1999/xlink" width="1024px" height="1024px" viewBox="0 0 1024 1024" version="1.1">
<g id="surface1">
<path style=" stroke:none;fill-rule:nonzero;fill:rgb(0%,0%,0%);fill-opacity:1;" d="M 874.75 760.230469 L 838.128906 760.230469 L 838.128906 833.472656 C 838.128906 873.929688 805.328125 906.722656 764.878906 906.722656 L 142.257812 906.722656 C 101.808594 906.722656 69.015625 873.929688 69.015625 833.472656 L 69.015625 320.734375 C 69.015625 280.28125 101.808594 247.488281 142.257812 247.488281 L 178.882812 247.488281 L 178.882812 174.234375 C 178.882812 133.78125 211.675781 100.988281 252.136719 100.988281 L 874.746094 100.988281 C 915.207031 100.988281 948 133.777344 948 174.234375 L 948 686.976562 C 948 727.433594 915.207031 760.230469 874.746094 760.230469 Z M 142.257812 284.109375 C 122.03125 284.109375 105.636719 300.507812 105.636719 320.734375 L 105.636719 833.472656 C 105.636719 853.699219 122.03125 870.101562 142.257812 870.101562 L 764.878906 870.101562 C 785.101562 870.101562 801.5 853.699219 801.5 833.472656 L 801.5 320.734375 C 801.5 300.507812 785.101562 284.109375 764.878906 284.109375 Z M 911.375 174.234375 C 911.375 154.007812 894.976562 137.613281 874.75 137.613281 L 252.136719 137.613281 C 231.90625 137.613281 215.511719 154.007812 215.511719 174.234375 L 215.511719 247.488281 L 764.882812 247.488281 C 805.328125 247.488281 838.132812 280.28125 838.132812 320.734375 L 838.132812 723.601562 L 874.753906 723.601562 C 894.980469 723.601562 911.375 707.203125 911.375 686.976562 Z M 618.378906 577.101562 C 618.378906 577.101562 622.640625 540.480469 581.75 540.480469 C 565.078125 540.480469 545.128906 548.5 545.128906 577.101562 L 545.128906 723.601562 L 471.882812 723.601562 L 471.882812 503.855469 L 618.378906 503.855469 C 616.191406 503.855469 691.628906 499.339844 691.628906 577.105469 L 691.628906 723.601562 L 618.378906 723.601562 Z M 215.511719 393.980469 L 435.257812 393.980469 L 435.257812 430.609375 L 288.757812 430.609375 L 288.757812 540.480469 L 398.628906 540.480469 L 398.628906 577.101562 L 288.757812 577.101562 L 288.757812 686.976562 L 435.257812 686.976562 L 435.257812 723.601562 L 215.511719 723.601562 Z M 215.511719 393.980469 "/>
</g>
</svg>

<svg xmlns="http://www.w3.org/2000/svg" width="1024" height="1024"><path d="M874.75 760.23h-36.621v73.243c0 40.457-32.8 73.25-73.25 73.25H142.258c-40.45 0-73.242-32.793-73.242-73.25V320.734c0-40.453 32.793-73.246 73.242-73.246h36.625v-73.254c0-40.453 32.793-73.246 73.254-73.246h622.61c40.46 0 73.253 32.79 73.253 73.246v512.743c0 40.457-32.793 73.253-73.254 73.253ZM142.258 284.11c-20.227 0-36.621 16.398-36.621 36.624v512.739c0 20.226 16.394 36.629 36.62 36.629H764.88c20.223 0 36.621-16.403 36.621-36.63V320.735c0-20.226-16.398-36.625-36.621-36.625Zm769.117-109.876c0-20.226-16.398-36.62-36.625-36.62H252.137c-20.23 0-36.625 16.394-36.625 36.62v73.254h549.37c40.446 0 73.25 32.793 73.25 73.246v402.868h36.622c20.226 0 36.621-16.399 36.621-36.625ZM618.379 577.102s4.262-36.622-36.629-36.622c-16.672 0-36.621 8.02-36.621 36.622v146.5h-73.246V503.855h146.496c-2.188 0 73.25-4.515 73.25 73.25v146.497h-73.25ZM215.512 393.98h219.746v36.63h-146.5v109.87h109.87v36.622h-109.87v109.875h146.5v36.625H215.512Zm0 0" style="stroke:none;fill-rule:nonzero;fill:#000;fill-opacity:1"/></svg>
